X:3
T:Zuerioberland-Polka CGF 2+ 
M:2/4
L:1/16
K:Cmaj
ef |: "C"g2c'2 g2c'2 | "G7"b2d2 defg | b2f2 a2B2 | "C"cdef g2ef | g2c'2 g2c'2 | "G7"b2d2 defg | b2d2 a2B2 |1 
"C"c2eg c'2eg :|2 "C"c2eg c'2 z2 |: [K:Gmaj] "G"dbg2 gfg2 | "Am/C"ec'a2 a^ga2 | "D7"fa^ga d'3c' | "G"bc'ba g2Bc | d2bg gfg2 | 
"Am/C"e2c'a a^ga2 | "D7"fa^ga d'c'ba |1 "G"g2b2 g2 z2 :|2 "G"g2b2 g2e=f |: [K:Fmaj] "F"ca^ga ba=gf | "C7"Pf2e2 e^de2 | 
cbab c'bag | "F"Pg2f2 fef2 | ca^ga "F7"ba=gf |"Bb"Pe2d2 efed | "C7"cegd' c'bag | "F"f2a2 f2z2 :: "C7"bagf edcB | 
"F"Acfa c'2c'2 | "C7"Bceg c'2c'2 | "F"Acfa b2c'2 | "Bb"bagf "C7"edcB | "F"Acfa c'2c'2 | "C7"Bceg d'bag | "F"f2a2 f2z2 :|

